X:1
T:O Lord, in the wrath - Gibbons
T:James Gibb editions
T:#
%%score { 1 | 2 } { 3 | 4 } 5 6
L:1/8
Q:1/4=96
M:4/4
K:Ab
V:1 treble nm="Soprano 1" snm="S"
V:2 treble 
V:3 treble nm="Alto 1" snm="A"
V:4 treble 
V:5 treble-8 nm="Tenor" snm="T"
V:6 bass nm="Bass" snm="B"
V:1
"^O Lord, in thy wrath""^Psalm vi: 1-4" F4 G4 | A2 B2 c4- | c2 F2 F2 f2- | f2 =e2 f2 _d2 | %4
w: O Lord,|in thy wrath,|* in thy wrath|* re- buke me|
 c4 z2"^Orlando Gibbons\n(1583-1625)" B2 |[M:4/4] c4 d2 e2 | f4 z4 | z4 f2 e2- | e2 d2 c4 | %9
w: not, O|Lord, in thy|wrath|re- buke|* me not,|
[M:4/4] d2 c4 B2 | c6 c2 | c4 z4 | z8 | z2 cc e3 e | B2 e2 =d2 e2 | f2 f3 (e/!courtesy!_d/) c=d | %16
w: re- buke me|not, me|not:||nei- ther chas- ten|me in thy dis-|plea- sure, in * thy dis-|
 =e2 e2 z4 | z2 c2 d4 | c2 c4 B2- | B2 A2 G2 F2 | f2 (e4 d2) | c6 c2 | c4 z2 !courtesy!_A2 | %23
w: plea- sure.|Have mer-|cy, have mer\-|* cy up- on|me, O *|Lord, O|Lord, for|
 A2 G2 F3/2 G/AB | c2 B4 A2 | G4 z4 | z8 | cc f4 e2 | =d4 c2 c2 | c4 c4 | z2 c4 e2- | e2 B4 d2- | %32
w: I am weak, for * *|* I am|weak:||for my bones are|vex- ed, are|vex- ed.|My soul,|* my soul|
 dc A3 B c2 | B4 A4 | z2 c2 c4 | B2 F4 GA | B2 A2 B4 | G6 G2 | F2 f4 e2- | ee d2 c3 c | c4 z2 c2 | %41
w: * is al- so sore|trou- bled:|but, Lord,|how long wilt thou|pun- ish me,|pun- ish|me, how long|* wilt thou pun- ish|me? O|
 B4 =A4 | z4 z2 e2 | d4 c4 |[Q:1/4=92][Q:1/4=92][Q:1/4=92][Q:1/4=92] z4 z2 f2 | e4 =d2 e2- | %46
w: save me,|O|save me,|O|save me for|
 e2 !courtesy!_d2 c4- | c2 c2"^!" !fermata!c8 |] %48
w: * thy mer\-|* cy's sake.|
V:2
 z8 | F4 G4 | A2 B2 c4 | B4 c2 B2 | G2 G2 F4- |[M:4/4] F2 F2 F2 z2 | z2 F4 B2- | B2 =A2 B2 G2 | %8
w: |O Lord,|in thy wrath|re- buke me|not, re- buke|* me not,|re- buke|* me not, O|
 =A2 B4 A2 |[M:4/4] BF !courtesy!_A4 (GF) | G2 A2 G3 G | F4 z2 cc | e3 e BB c2- | c2 F2 c2 c2 | %14
w: Lord, in thy|wrath re- buke me *|not, re- buke me|not: nei- ther|chas- ten me in thy|* dis- plea- sure.|
 z8 | z8 | z2 c4 B2- | B2 A2 G2 F2 | =E4 z4 | z2 c2 d4 | c4 B3 A | (G2 F2 G4) | =A4 z2 c2 | %23
w: ||Have mer\-|* cy up- on|me,|have mer-|cy up- on||me, for|
 c2 c2 f4 | e2 d4 c2 | B4 B2 e2- | e2 =d2 e3 (_d | c3/2) (B/ A2) GG c2- | c2 B4 A2 | G4 F4 | z8 | %31
w: I am weak,|for I am|weak O Lord,|* heal me, for|* my * bones are vex\-|* ed, are|vex- ed.||
 z8 | z8 | z4 z2 e2 | e4 z4 | e2 f4 e2 | =d2 e4 d2 | e4 z2 c2- | c2 B3 A A2 | G2 F2 =E2 F2- | %40
w: ||but,|Lord,|how long wilt|thou pun- ish|me, how|* long wilt thou|pun- ish me, pun\-|
 F2 =E2 F4 | z4 z2 c2 | B4 !courtesy!_A4 | z4 z2 e2 | d4 c2 B2- | B2 =A2 B4 | z2 B4 !courtesy!_A2 | %47
w: * ish me?|O|save me,|O|save me, O|* save me|for thy|
 G3 G !fermata!F8 |] %48
w: mer- cy's sake.|
V:3
 z8 | z2 F4 =E2 | F2 D2 C3 D | E (=D B,2) F4 | z4 B,2 F2- |[M:4/4] FE C2 F2 B,2 | C4 (D2 E2) | %7
w: |O Lord,|in thy wrath re-|buke me * not.|O Lord,|* in thy wrath re-|buke me *|
 F4 z4 | z2 F2 _G2 F2 |[M:4/4] (D2 E2) F4 | =E2 F4 E2 | F4 z4 | z4 z2 GG | A3 A E2 A2 | %14
w: not,|O Lord, in|thy * wrath|re- buke me|not:|nei- ther|chas- ten me in|
 G2 E2 F2 GG | (B2 F2) F4 | z2 C2 D4 | C4 B,4 | C4 F,4 | z4 z2 F2 | A4 G2 F2 | (=E2 F4 E2) | %22
w: thy dis- plea- sure, dis-|plea\- * sure.|Have mer-|cy up-|on me,|have|mer- cy up-|on * *|
 F4 z2 F2 | F2 !courtesy!_E2 D3/2 (E/FG) | A2 F2 E4- | E4 E2 B2- | B (A F2 G2) E2 | z8 | %28
w: me, for|I am weak, for * *|I am weak:|* O Lord,|* heal * * me,||
 z2 G,3 G,A,B, | C4 C2 F2 | A4 G4- | G4 F4- | F2 F2 F2 (A2- | A2 G2) A4 | z2 A2 A4 | z8 | z8 | %37
w: for my bones are|vex- ed. My|soul is|* al\-|* so sore trou\-|* * bled:|but, Lord,|||
 z2 C2 C4 | z8 | E2 B3 B A2 | G3 G F4- | F2 F2 F4 | F2 E4 C2 | D2 B,2 C2"^I" A2- | A2 G2 A2 F2 | %45
w: but, Lord,||how long wilt thou|pun- ish me?|* O save|me for thy|mer- cy's sake, O|* save me, O|
 G2 C2 z4 | z2 B,2 G,2 (A,B, | C3) C !fermata!C8 |] %48
w: save me|for thy mer\- *|* cy's sake.|
V:4
 z2 F4 =E2 | F2 (D2 C4) | F,2 z2 z4 | z4 z2 F2- | F2 =E2 F2 D2 |[M:4/4] C4 B,2 B2- | B2 =A2 B4 | %7
w: O Lord,|in thy *|wrath,|O|* Lord, in thy|wrath re- buke|* me not:|
 z8 | z8 |[M:4/4] z8 | z4 z2 GG | A3 A E2 A2 | G2 (EF) G4 | F4 z4 | z2 GG B3 B | FF B4 A2 | G4 F4 | %17
w: |||nei- ther|chas- ten me in|thy dis\- * plea-|sure,|nei- ther chas- ten|me in thy dis-|plea- sure.|
 z2 E2 B3 A | G2 C2 F4 | E4 D2 B,2 | C4 z2 F,2 | C4 C4- | C4 z4 | z8 | z8 | z2 E2 G4 | F4 E4 | %27
w: Have mer- cy|up- on me,|have mer- *|cy up-|on me,||||O Lord,|heal me,|
 E2 F2 G4- | G2 G2 G2 C2- | C (B, G,2) A,2 F,2 | F4 E4- | E2 E2 D3 C | A,3 B, (CD E2- | %33
w: for my bones|* are vex- ed,|* are * vex- ed.|My soul,|* my soul is|al- so sore * *|
 E) (D B,2) C4 | z2 E2 E4 | G2 A4 G2 | (F2 E2) F3 F | E6 =E2 | F4 z4 | z8 | z4 z2 C2 | D4 C2 C2 | %42
w: * trou\- * bled:|but, Lord,|how long wilt|thou * pun- ish|me, O|Lord?||O|save me, O|
 (D2 B,2) C2 A2- | A2 G2 A2 EE | F2 B,2 C2 D2 | E4 F2 G2 | F4 (=E2 F2- | F2 =E2) !fermata!F8 |] %48
w: save * me, O|* save me for thy|mer- cy's sake, O|save me for|thy mer- cy's|* * sake.|
V:5
 z8 | z8 | z2 B4 =A2 | B2 G2 F2 z2 | z2 C2 D2 (B,2 |[M:4/4][K:treble-8] F4 B,2 z2 | z4 z2 B2 | %7
w: ||O Lord,|in thy wrath|re- buke me|* not,|O|
 c4 d2 e2 | f3 f e2 c2 |[M:4/4][K:treble-8] B2 AG F2) B2- | B2 (AB) c3 C | (F>G AB) c4 | %12
w: Lord, in thy|wrath re- buke me|not, re\- * * buke|* me * not, re-|buke * * * me|
 B2 cc e3 e | A3 B cd e2- | e2 B2 B4 | B3 (A/G/) (FGAB) | c4 z4 | z8 | G2 A4 GF | (G2 A2) B4 | %20
w: not: nei- ther chas- ten|me in thy dis- plea\-|* sure, in|thy dis\- * plea\- * * *|sure.||Have mer- cy up-|on * me,|
 z2 (E>F) (GA) B2- | B2 A2 G4 | F4 z4 | z4 z2 d2 | A2 B2 G2 A2 | E3/2 (F/GA) B4- | B2 B2 B2 c2- | %27
w: have * mer\- * cy|* up- on|me,|for|I am weak, for|I am * * weak:|* O Lord, heal|
 c2 c2 z2 c2 | =d4 =e2 f2- | f2 =e2 f4 | F4 G4 | G4 B3 A | F3 G A4 | (B2 E2) E4 | z2 c2 c4 | %35
w: * me, for|my bones are|* vex- ed.|My soul,|my soul is|al- so sore|trou\- * bled:|but, Lord,|
 e2 =d4 e2 | B2 c2 B4 | E3 F G2 c2 | F4 c4 | (B3 A G2 F2) | c6 c2 | F4 z2 F2- | F2 G2 A4 | %43
w: how long wilt|thou pun- ish|me, but, Lord, how|long wilt|thou * * *|pun- ish|me? O|* save me,|
 B4 E2"^I" c2 | B4 A2 B2 | E4 B2 B2- | B (A F2) c2 (c2- | cB G2) !fermata!=A8 |] %48
w: save me, O|save me, O|save me for|* thy * mer- cy's|* * * sake.|
V:6
 z8 | z8 | z4 F,4 | G,4 =A,2 B,2 | C4 F,2 B,2- |[M:4/4] B,2 =A,2 C2 G,2 | F,3 F, B,2 G,2 | %7
w: ||O|Lord, in thy|wrath re- buke|* me not, re-|buke me not, re-|
 F,3 F, B,,2 z2 | z2 D,2 E,2 F,2 |[M:4/4] B,,2 C,2 D,3 D, | C,8 | z2 F,F, A,3 A, | %12
w: buke me not.|Lord, in thy|wrath re- buke me|not:|nei- ther chas- ten|
 E,2 A,2 G,2 C,2 | F,2 F,2 z2 C,C, | E,3 E, B,,2 E,2- | E,2 =D,E, F,4 | C,4 z4 | z8 | C,4 D,4 | %19
w: me in thy dis-|plea- sure. nei- ther|chas- ten me me|* thy dis- plea-|sure.||Have mer-|
 C,4 B,,4 | A,,4 B,,4 | C,8 | F,4 z4 | z8 | z8 | z2 E,2 (E,>F,G,A,) | B,4 E,2 A,2- | %27
w: cy up-|on me,|O|Lord,|||O Lord, * * *|heal me, for|
 A, (G, F,2) C4 | G,4 C,4- | C,4 F,4- | F,2 F,2 C,4 | E,4 B,,2 B,,2 | D,3 C, A,,4 | E,4 A,,4 | %34
w: * my * bones|are vex\-|* ed.|* My soul,|my soul is|al- so sore|trou- bled:|
 z2 A,2 A,4 | z8 | z8 | z2 C,2 C,4 | D,4 C,4 | E,2 B,,2 C,4- | C,2 C,2 F,2 F,2 | (D,3 E,) F,4 | %42
w: but, Lord,|||but, Lord,|how long|wilt thou pun\-|* ish me? O|save * me,|
 D,2 E,2 A,,2 C,2 | B,,4 A,,4 | z4 z2 D,2 | C,4 B,,4 | B,,2 B,,2 C,4- | C,2 C,2"^I" !fermata!F,8 |] %48
w: O save me, O|save me,|O|save me|for thy mer\-|* cy's sake.|

